!!!OTL: 1556. Das faule Gretchen.
!!!ARE: Europa, Mitteleuropa, Deutschland, Hessen, Wetterau, Langsdorf
!!!SCT: E1556
!!!TXL: @@DE
!!!YEM: Copyright 1995, estate of Helmut Schaffrath.
**kern	**text
*ICvox	*
*M2/4	*
*k[f#]	*
*G:	*
!LO:TX:a:t=Heiter.	!
!LO:TX:a:t=Aus der Wetterau. (Noch 1880 geſungen in Langsdorf rt.)	!
{4d	Wer
=1	=1
8g	ſo
8g	ein
8g	fau-
8g	-les
=2	=2
8g	Gret-
8b	-chen
4g	hat,
=3	=3
8g	(Gret-
8b	-chen
8g}	hat)
{8b	wie
=4	=4
8.a	kann
16g	der
8f#	lu-
8g	-ſtig
=5	=5
4a}	ſein?
{4dd	wie
=6	=6
8.a	kann
16g	der
8f#	lu-
8g	-ſtig
=7	=7
4a;}	ſein?
{4dd	Sie
=8	=8
8.b	ſchläft
16dd	ja
8dd	al-
8dd	-le
=9	=9
8eeL	Mor-
8ddJ	.
4dd	-gen,
=10	=10
8eeL	(Mor-
8ddJ	.
8dd}	-gen)
{8gg	bis
=11	=11
8.b	daß
16b	die
8dd	Son-
8dd	-ne
=12	=12
4b}	ſcheint,
{4cc	bis
=13	=13
8.a	daß
16a	die
8a	Son-
8b	-ne
=14	=14
4g}	ſcheint.
{4dd	Sie
=15	=15
8.b	ſchläft
16dd	ja
8dd	al-
8dd	-le
=16	=16
8eeL	Mor-
8ddJ	.
4dd	-gen,
=17	=17
8eeL	(Mor-
8ddJ	.
8dd}	-gen)
{8gg	bis
=18	=18
8.b	daß
16b	die
8dd	Son-
8dd	-ne
=19	=19
4b}	ſcheint,
{4cc	bis
=20	=20
8.a	daß
16a	die
8a	Son-
8b	-ne
=21	=21
4g}	ſcheint.
==	==
!!!AGN: Staende -, Bauern - Lied
!!!ONB: ESAC (Essen Associative Code) Database: ERK3
!!!AMT: simple duple
!!!AIN: vox
!!!EED: Helmut Schaffrath
!!!EEV: 1.0
!!!GTL: Staendelieder (Berufslieder). 6. Bauernlieder (von und gegen Bauern).
!!!URL-scan: https://rosdok.uni-rostock.de/mcrviewer/recordIdentifier/rosdok_ppn745177999/iview2/phys_0398.iview2?x=-128.77276441889285&y=232.33365792315453&scale=0.5870222003877487&rotation=0&layout=singlePageLayout
!!!ENC: Anna Maria Matuszewska
!!!EEV: 2025/03/01
*-	*-
